Simply-White-Circles/scalable/apps/showtime.svg

<svg xmlns="http://www.w3.org/2000/svg" width="48" height="48" viewBox="0 0 12.7 12.7"><path d="M6.34.07a6.29 6.29 0 0 0-6.29 6.3 6.29 6.29 0 0 0 6.3 6.28 6.29 6.29 0 0 0 6.28-6.29A6.29 6.29 0 0 0 6.34.07zM6.32 1l.01.01a5.4 5.4 0 0 1 5.39 5.05.8.72 0 0 0-.3-.26L7.67 3.88 3.9 1.95a.8.72 0 0 0-.38-.1.8.72 0 0 0-.12 0A5.4 5.4 0 0 1 6.32 1zm-3.6 1.39a.8.72 0 0 0-.03.18v7.7a.8.72 0 0 0 .01.15 5.4 5.4 0 0 1-1.78-4 5.4 5.4 0 0 1 1.8-4.03zm4.4 1.98a.36.32 0 0 1 .37.32v3.47a.36.32 0 0 1-.55.28l-1.69-.87-1.7-.87a.36.32 0 0 1 0-.56l1.7-.86 1.7-.87a.36.32 0 0 1 .16-.04zm4.6 2.43a5.4 5.4 0 0 1-5.39 5.02 5.4 5.4 0 0 1-2.87-.83.8.72 0 0 0 .44-.09l3.76-1.93 3.77-1.92a.8.72 0 0 0 .28-.25z" fill="#e6e6e6"/></svg>

<?xml version="1.0" encoding="UTF-8" standalone="no"?>
<svg
   xmlns:dc="http://purl.org/dc/elements/1.1/"
   xmlns:cc="http://creativecommons.org/ns#"
   xmlns:rdf="http://www.w3.org/1999/02/22-rdf-syntax-ns#"
   xmlns:svg="http://www.w3.org/2000/svg"
   xmlns="http://www.w3.org/2000/svg"
   xmlns:sodipodi="http://sodipodi.sourceforge.net/DTD/sodipodi-0.dtd"
   xmlns:inkscape="http://www.inkscape.org/namespaces/inkscape"
   width="48"
   height="48"
   viewBox="0 0 12.7 12.7"
   version="1.1"
   id="svg4"
   sodipodi:docname="showtime.svg"
   inkscape:version="0.92.4 (5da689c313, 2019-01-14)">
  <metadata
     id="metadata10">
    <rdf:RDF>
      <cc:Work
         rdf:about="">
        <dc:format>image/svg+xml</dc:format>
        <dc:type
           rdf:resource="http://purl.org/dc/dcmitype/StillImage" />
        <dc:title></dc:title>
      </cc:Work>
    </rdf:RDF>
  </metadata>
  <defs
     id="defs8" />
  <sodipodi:namedview
     pagecolor="#ffffff"
     bordercolor="#666666"
     borderopacity="1"
     objecttolerance="10"
     gridtolerance="10"
     guidetolerance="10"
     inkscape:pageopacity="0"
     inkscape:pageshadow="2"
     inkscape:window-width="1087"
     inkscape:window-height="480"
     id="namedview6"
     showgrid="false"
     inkscape:zoom="4.9166667"
     inkscape:cx="2.1355932"
     inkscape:cy="24"
     inkscape:window-x="0"
     inkscape:window-y="25"
     inkscape:window-maximized="0"
     inkscape:current-layer="svg4" />
  <path
     d="M 6.34,0.07 A 6.29,6.29 0 0 0 0.05,6.37 6.29,6.29 0 0 0 6.35,12.65 6.29,6.29 0 0 0 12.63,6.36 6.29,6.29 0 0 0 6.34,0.07 Z M 6.32,1 6.33,1.01 A 5.4,5.4 0 0 1 11.72,6.06 0.8,0.72 0 0 0 11.42,5.8 L 7.67,3.88 3.9,1.95 A 0.8,0.72 0 0 0 3.52,1.85 0.8,0.72 0 0 0 3.4,1.85 5.4,5.4 0 0 1 6.32,1 Z M 2.72,2.39 A 0.8,0.72 0 0 0 2.69,2.57 v 7.7 a 0.8,0.72 0 0 0 0.01,0.15 5.4,5.4 0 0 1 -1.78,-4 5.4,5.4 0 0 1 1.8,-4.03 z m 4.4,1.98 A 0.36,0.32 0 0 1 7.49,4.69 V 8.16 A 0.36,0.32 0 0 1 6.94,8.44 L 5.25,7.57 3.55,6.7 a 0.36,0.32 0 0 1 0,-0.56 L 5.25,5.28 6.95,4.41 A 0.36,0.32 0 0 1 7.11,4.37 Z m 4.6,2.43 A 5.4,5.4 0 0 1 6.33,11.82 5.4,5.4 0 0 1 3.46,10.99 0.8,0.72 0 0 0 3.9,10.9 L 7.66,8.97 11.43,7.05 A 0.8,0.72 0 0 0 11.71,6.8 Z"
     id="path2"
     inkscape:connector-curvature="0"
     style="fill:#e6e6e6" />
</svg>
